X:115
T:The hills of Clogher
T:The flowers of Red Hill
R:Reel
O:Ireland
P:Or use A major chords...
B:Music from Ireland Vol. 3
B:Irish Traditional Music Session Tunes 1
S:Richard Darsie's web page but same as above...
S:My arrangement from various sources
Z:Transcription, arrangement, chords:Mike Long
M:C|
L:1/8
K:G
"Am"eA ~A2 "(G)"gAfA|"Am"eA ~A2 "G"eAdA|"Am"eA ~A2 edea|"G"gedB GABd:|\
"Am"ea ~a2 "G"bgag|"Am"eaag "G"(3(efg) dg|
"Am"ea ~a2 "G"b2ag|"Em"~e2dB GABd|\
"Am"ea ~a2 "G"bgag|"Am"eaaf "G"g2 ga|"G"b2 bg a2 ag|"(Em)"eA ~A2 edBd|]
